!!!COM: Beethoven
!!!OTL: 24 Variationen uber Venni Amore von V. Righini
!!!Variation: Variation 15 b
**function	**harm	**kern	**kern
*	*	*clefF4	*clefG2
*	*	*k[f#c#]	*k[f#c#]
*M2/4	*M2/4	*M2/4	*M2/4
*D:	*D:	*D:	*D:
=281	=281	=281	=281
2T	2V7b	24gLL	4r
.	.	24e	.
.	.	24gJ	.
.	.	24f#L	.
.	.	24d#	.
.	.	24f#JJ	.
.	.	24gLL	4a 4aa
.	.	24e	.
.	.	24gJ	.
.	.	24eL	.
.	.	24c#	.
.	.	24eJJ	.
=282	=282	=282	=282
2T	2I	24f#LL	4r
.	.	24d	.
.	.	24f#J	.
.	.	24dL	.
.	.	24A	.
.	.	24dJJ	.
.	.	.	(q8cc# ccc#
.	.	24ALL	8dd) 8ddd
.	.	24F#	.
.	.	24AJ	.
.	.	24F#L	8r
.	.	24D	.
.	.	24F#JJ	.
=283	=283	=283	=283
2T	2V7b	24GLL	4r
.	.	24E	.
.	.	24GJ	.
.	.	24F#L	.
.	.	24D#	.
.	.	24F#JJ	.
.	.	24GLL	4A 4a
.	.	24E	.
.	.	24GJ	.
.	.	24EL	.
.	.	24C#	.
.	.	24EJJ	.
=284	=284	=284	=284
2T	2I	24F#LL	4r
.	.	24D	.
.	.	24F#J	.
.	.	24DL	.
.	.	24AA	.
.	.	24DJJ	.
.	.	.	(q8c# cc#
.	.	24AALL	8d) 8dd
.	.	24FF#	.
.	.	24AAJ	.
.	.	24FF#L	8r
.	.	24DD	.
.	.	24FF#JJ	.
=285	=285	=285	=285
2T	2V7b	8CC#L	24r
.	.	.	(24ALL
.	.	.	24BJ
.	.	(8EJ	32c#LL
.	.	.	32d
.	.	.	32e
.	.	.	32f#JJJ)
.	.	8C#L	24gLL
.	.	.	24a
.	.	.	24bJ
.	.	8GGJ)	24cc#L
.	.	.	24b
.	.	.	24aJJ
=286	=286	=286	=286
2T	2Ib	8FF#L	(24ddLL
.	.	.	24d
.	.	.	24eJ
.	.	(8AJ	32f#LL
.	.	.	32g
.	.	.	32a
.	.	.	32bJJJ)
.	.	8F#L	24cc#LL
.	.	.	24dd
.	.	.	24eeJ
.	.	8DJ)	24ff#L
.	.	.	24ee
.	.	.	24ddJJ
=287	=287	=287	=287
2D	2V7	(24C#LL	8gg
.	.	24AA	.
.	.	24BBJ	.
.	.	32C#LL	8r
.	.	32D	.
.	.	32E	.
.	.	32F#JJJ)	.
.	.	24GLL	4gg 4aa 4eee
.	.	24A	.
.	.	24BJ	.
.	.	24c#L	.
.	.	24B	.
.	.	24AJJ	.
=288	=288	=288	=288
2T	2I	24dLL	8ff# 8aa 8ddd
.	.	24A	.
.	.	24F#J	.
.	.	24DL	8r
.	.	24AA	.
.	.	24FF#JJ	.
.	.	8DD	24r
.	.	.	24ddLL
.	.	.	24cc#J
.	.	8r	24ddL
.	.	.	24ee
.	.	.	24ff#JJ
*-	*-	*-	*-
